X: 38707
T: Strayaway Child, The
R: jig
M: 6/8
K: Eminor
A|:BEE GEE|BEE G2 A|BEE BAG|FDF Adc|
BEE GEE|BEE G2 A|BcB B2 A|GEE E2 A:|
|:Bee BdB|dBG AGA|Bee BdB|dBG A2 A|
Bee BdB|dBG AGA|BcB B2 A|GEE E2 A|
Bee BdB|dBG AGA|Bee BdB|dBG A2 f|
gfe dcB|AGA BGE|AGE DBD|E3 E2 D||
|:EAG EDE|G3 BAG|AGE DBD|E3 E2 D|
EAG EDE|G3 BAG|AGE DBD|1 E3 E2 D:|2 E3 E2 B||
|:efe ded|BcA BGE|GAB cBA|BGE D2 c|
BAG EDE|GAB cBA|BAG EAG|1 E3 E2 B:|2 E3 E3||
|:Bee efg|fdf edA|Bee efg|fdf e2 f|
gfe dcB|AGA BGE|AGE DBD|1 E3 E2 A:|2 E3 E2 B||
|:edB edB|AGA BGE|edB edB|AGA B3|
edB gfe|dcB AGA|BAG EAG|1 E3 E2 B:|2 E3 E3||

